public/images/icon/icon-sun.svg

<svg width="22" height="22" viewBox="0 0 22 22" fill="none" xmlns="http://www.w3.org/2000/svg">
<g clip-path="url(#clip0_1_1131)">
<path d="M11 16.4998C9.54133 16.4998 8.14238 15.9204 7.11093 14.8889C6.07948 13.8575 5.50002 12.4585 5.50002 10.9998C5.50002 9.54115 6.07948 8.1422 7.11093 7.11075C8.14238 6.0793 9.54133 5.49984 11 5.49984C12.4587 5.49984 13.8577 6.0793 14.8891 7.11075C15.9206 8.1422 16.5 9.54115 16.5 10.9998C16.5 12.4585 15.9206 13.8575 14.8891 14.8889C13.8577 15.9204 12.4587 16.4998 11 16.4998ZM11 14.6665C11.9725 14.6665 12.9051 14.2802 13.5927 13.5926C14.2804 12.9049 14.6667 11.9723 14.6667 10.9998C14.6667 10.0274 14.2804 9.09475 13.5927 8.40711C12.9051 7.71948 11.9725 7.33317 11 7.33317C10.0276 7.33317 9.09493 7.71948 8.4073 8.40711C7.71966 9.09475 7.33335 10.0274 7.33335 10.9998C7.33335 11.9723 7.71966 12.9049 8.4073 13.5926C9.09493 14.2802 10.0276 14.6665 11 14.6665ZM10.0834 0.916504H11.9167V3.6665H10.0834V0.916504ZM10.0834 18.3332H11.9167V21.0832H10.0834V18.3332ZM3.2221 4.51809L4.51827 3.22192L6.46252 5.16617L5.16635 6.46234L3.2221 4.519V4.51809ZM15.5375 16.8335L16.8337 15.5373L18.7779 17.4816L17.4818 18.7778L15.5375 16.8335ZM17.4818 3.221L18.7779 4.51809L16.8337 6.46234L15.5375 5.16617L17.4818 3.22192V3.221ZM5.16635 15.5373L6.46252 16.8335L4.51827 18.7778L3.2221 17.4816L5.16635 15.5373ZM21.0834 10.0832V11.9165H18.3334V10.0832H21.0834ZM3.66669 10.0832V11.9165H0.916687V10.0832H3.66669Z" fill="#757693"/>
</g>
<defs>
<clipPath id="clip0_1_1131">
<rect width="22" height="22" fill="white"/>
</clipPath>
</defs>
</svg>

<svg xmlns="http://www.w3.org/2000/svg" width="22" height="22" fill="none"><g clip-path="url(#a)"><path fill="#757693" d="M11 16.5a5.5 5.5 0 1 1 0-11 5.5 5.5 0 0 1 0 11m0-1.834a3.667 3.667 0 1 0 0-7.333 3.667 3.667 0 0 0 0 7.333M10.083.916h1.834v2.75h-1.834zm0 17.417h1.834v2.75h-1.834zM3.223 4.518l1.295-1.296 1.945 1.944-1.297 1.296L3.222 4.52m12.315 12.316 1.296-1.297 1.944 1.945-1.296 1.296zM17.482 3.22l1.296 1.297-1.944 1.944-1.296-1.296zM5.166 15.537l1.297 1.297-1.945 1.944-1.296-1.296zm15.917-5.454v1.833h-2.75v-1.833zm-17.416 0v1.833H.917v-1.833z"/></g><defs><clipPath id="a"><path fill="#fff" d="M0 0h22v22H0z"/></clipPath></defs></svg>
